findly-builder/apps/searchassist/src/assets/icons/onboarding/hand.svg

<svg width="20" height="20" viewBox="0 0 20 20" fill="none" xmlns="http://www.w3.org/2000/svg">
<path d="M13.7494 10.833C13.3327 10.833 12.9731 10.5209 12.9231 10.0968L12.0898 3.01345C12.036 2.55636 12.3627 2.1422 12.8202 2.08845C13.2756 2.03136 13.691 2.36178 13.7452 2.81886L14.5785 9.90219C14.6323 10.3593 14.3056 10.7734 13.8481 10.8272C13.8148 10.8314 13.7819 10.833 13.7494 10.833Z" fill="#FFC430"/>
<path d="M12.293 10.8335C11.9026 10.8335 11.5289 10.6135 11.3505 10.2373L7.60053 2.32061C7.35428 1.80061 7.57595 1.17977 8.09595 0.933106C8.61636 0.68769 9.2372 0.90894 9.48345 1.42852L13.2334 9.34519C13.4797 9.86519 13.258 10.486 12.738 10.7327C12.5943 10.801 12.4422 10.8335 12.293 10.8335Z" fill="#FFC430"/>
<path d="M11.4584 11.2503C11.1917 11.2503 10.9254 11.1486 10.7217 10.9453L7.06253 7.2861L3.00586 4.85193C2.51253 4.5561 2.35253 3.9161 2.64878 3.42276C2.94503 2.92901 3.58586 2.76985 4.07794 3.06568L8.24461 5.56568C8.31794 5.60943 8.38503 5.66193 8.44503 5.72235L12.195 9.47235C12.6021 9.87943 12.6021 10.5386 12.195 10.9453C11.9913 11.1486 11.725 11.2503 11.4584 11.2503Z" fill="#FFC430"/>
<path d="M3.54198 12.577C3.27531 12.577 3.00906 12.4753 2.80531 12.272C2.39823 11.8649 2.39823 11.2058 2.80531 10.7991L4.96573 8.63867C5.16115 8.44325 5.42573 8.33325 5.7024 8.33325H11.4624C12.0378 8.33325 12.5041 8.7995 12.5041 9.37492C12.5041 9.95034 12.0378 10.4166 11.4624 10.4166H6.13365L4.27865 12.2716C4.0749 12.4749 3.80865 12.577 3.54198 12.577Z" fill="#FFC430"/>
<path d="M13.3804 17.4999H5.99079C5.6537 17.4999 5.33121 17.3637 5.09579 17.1224L2.61829 14.5816C2.45912 14.4183 2.46079 14.1574 2.62204 13.9962L2.78204 13.8362C3.65871 12.9595 5.07912 12.9579 5.95787 13.8316L6.7137 14.5833H13.3804V17.4999Z" fill="url(#paint0_linear_629_33017)"/>
<path d="M15.6023 11.2058L14.166 8.33325H6.66602V10.4166H7.82643C8.91435 10.4166 9.88601 11.212 9.98935 12.2953C10.1081 13.5378 9.13393 14.5833 7.91602 14.5833H7.08268V17.4999H17.4993C17.9598 17.4999 18.3327 17.127 18.3327 16.6666V12.4999C18.3327 12.0395 17.9598 11.6666 17.4993 11.6666H16.3477C16.0323 11.6666 15.7435 11.4883 15.6023 11.2058Z" fill="url(#paint1_linear_629_33017)"/>
<defs>
<linearGradient id="paint0_linear_629_33017" x1="7.93995" y1="8.26244" x2="7.93995" y2="17.5066" gradientUnits="userSpaceOnUse">
<stop stop-color="#FFC430"/>
<stop offset="0.41" stop-color="#FEC130"/>
<stop offset="0.72" stop-color="#FCB730"/>
<stop offset="0.998" stop-color="#F7A72F"/>
<stop offset="1" stop-color="#F7A72F"/>
</linearGradient>
<linearGradient id="paint1_linear_629_33017" x1="12.4993" y1="8.31117" x2="12.4993" y2="17.7008" gradientUnits="userSpaceOnUse">
<stop stop-color="#FFC430"/>
<stop offset="0.41" stop-color="#FEC130"/>
<stop offset="0.72" stop-color="#FCB730"/>
<stop offset="0.998" stop-color="#F7A72F"/>
<stop offset="1" stop-color="#F7A72F"/>
</linearGradient>
</defs>
</svg>

<svg width="20" height="20" fill="none" xmlns="http://www.w3.org/2000/svg"><path d="M13.75 10.833a.833.833 0 0 1-.827-.736l-.833-7.084a.833.833 0 1 1 1.655-.194l.834 7.083a.833.833 0 0 1-.83.931Z" fill="#FFC430"/><path d="M12.293 10.834c-.39 0-.764-.22-.942-.597L7.6 2.321a1.042 1.042 0 0 1 1.882-.892l3.75 7.916a1.042 1.042 0 0 1-.94 1.489Z" fill="#FFC430"/><path d="M11.458 11.25a1.04 1.04 0 0 1-.736-.305l-3.66-3.659-4.056-2.434a1.041 1.041 0 1 1 1.072-1.786l4.167 2.5c.073.043.14.096.2.156l3.75 3.75a1.04 1.04 0 0 1-.737 1.778Z" fill="#FFC430"/><path d="M3.542 12.577a1.04 1.04 0 0 1-.737-1.778l2.16-2.16a1.04 1.04 0 0 1 .737-.306h5.76a1.042 1.042 0 1 1 0 2.084H6.134l-1.855 1.855a1.04 1.04 0 0 1-.737.305Z" fill="#FFC430"/><path d="M13.38 17.5H5.99a1.25 1.25 0 0 1-.894-.378l-2.478-2.54a.417.417 0 0 1 .004-.586l.16-.16a2.249 2.249 0 0 1 3.176-.004l.756.751h6.666V17.5Z" fill="url(#a)"/><path d="m15.602 11.206-1.436-2.873h-7.5v2.084h1.16c1.088 0 2.06.795 2.163 1.878a2.084 2.084 0 0 1-2.073 2.288h-.833V17.5h10.416c.46 0 .834-.373.834-.833V12.5a.833.833 0 0 0-.834-.833h-1.151a.834.834 0 0 1-.746-.461Z" fill="url(#b)"/><defs><linearGradient id="a" x1="7.94" y1="8.262" x2="7.94" y2="17.507" gradientUnits="userSpaceOnUse"><stop stop-color="#FFC430"/><stop offset=".41" stop-color="#FEC130"/><stop offset=".72" stop-color="#FCB730"/><stop offset=".998" stop-color="#F7A72F"/><stop offset="1" stop-color="#F7A72F"/></linearGradient><linearGradient id="b" x1="12.499" y1="8.311" x2="12.499" y2="17.701" gradientUnits="userSpaceOnUse"><stop stop-color="#FFC430"/><stop offset=".41" stop-color="#FEC130"/><stop offset=".72" stop-color="#FCB730"/><stop offset=".998" stop-color="#F7A72F"/><stop offset="1" stop-color="#F7A72F"/></linearGradient></defs></svg>
